proprietary/assets/icons/op-kantoor/document-en-telefoon-met-vinkjes.svg

<svg enable-background="new 0 0 64 64" viewBox="0 0 64 64" xmlns="http://www.w3.org/2000/svg"><path d="m0 0h64v64h-64z" fill="none"/><path d="m58.582 11.834c-7.681-1.112-15.408-1.112-23.089 0-1.976.294-3.493 2.132-3.493 3.997v40.338c0 1.866 1.592 3.703 3.569 3.997 7.681 1.112 15.332 1.112 23.014 0 1.976-.294 3.417-2.132 3.417-3.997 0-13.446 0-26.892 0-40.338 0-1.865-1.441-3.703-3.418-3.997zm-11.582 46.366c-1.491 0-2.7-1.209-2.7-2.7s1.209-2.7 2.7-2.7 2.7 1.209 2.7 2.7-1.209 2.7-2.7 2.7zm11-8.2h-22v-32h22z"/><path d="m7 20.292-3.148-.932c-.342-.11-.219-.36-.219-.36h14.367c.552 0 1-.448 1-1v-14.366s.251-.11.36.231l.932 3.135h16.708v2.628c1.662-.204 3.33-.358 5-.461v-5.167c0-1.104-.896-2-2-2h-21.171c-.531 0-1.04.211-1.415.586l-14.828 14.828c-.375.375-.586.884-.586 1.415v31.171c0 1.1.9 2 2 2h26v-5h-23z"/><path d="m45.124 38.994c.264.389.671.656 1.141.659h.007c.468 0 .891-.252 1.141-.647 4.201-6.641 6.69-10.501 6.69-10.501.352-.588.198-1.347-.354-1.753s-1.322-.325-1.778.185l-5.818 6.551-3.836-3.38c-.491-.426-1.219-.433-1.719-.018s-.627 1.131-.299 1.693c-.001 0 2.103 3.214 4.825 7.211z"/><path d="m26.23 23.82-6.945 7.82-4.579-4.035c-.586-.509-1.455-.517-2.052-.021-.597.495-.748 1.35-.357 2.021-.001 0 2.51 3.837 5.76 8.608.315.464.801.783 1.362.787h.008c.559 0 1.064-.301 1.362-.772 5.015-7.928 7.986-12.536 7.986-12.536.42-.702.237-1.608-.422-2.093-.66-.484-1.579-.388-2.123.221z"/></svg>

<?xml version="1.0" encoding="utf-8"?>
<!-- Generator: Adobe Illustrator 25.3.1, SVG Export Plug-In . SVG Version: 6.00 Build 0)  -->
<svg version="1.1" xmlns="http://www.w3.org/2000/svg" xmlns:xlink="http://www.w3.org/1999/xlink" x="0px" y="0px"
	 viewBox="0 0 64 64" style="enable-background:new 0 0 64 64;" xml:space="preserve">
<style type="text/css">
	.st0{fill:none;}
</style>
<g id="Box">
	<rect class="st0" width="64" height="64"/>
</g>
<g id="Icon">
	<g>
		<path d="M58.582,11.834c-7.681-1.112-15.408-1.112-23.089,0C33.517,12.128,32,13.966,32,15.831c0,13.446,0,26.892,0,40.338
			c0,1.866,1.592,3.703,3.569,3.997c7.681,1.112,15.332,1.112,23.014,0C60.559,59.872,62,58.034,62,56.169
			c0-13.446,0-26.892,0-40.338C62,13.966,60.559,12.128,58.582,11.834z M47,58.2c-1.491,0-2.7-1.209-2.7-2.7
			c0-1.491,1.209-2.7,2.7-2.7s2.7,1.209,2.7,2.7C49.7,56.991,48.491,58.2,47,58.2z M58,50H36V18h22V50z"/>
		<path d="M7,20.292L3.852,19.36C3.51,19.25,3.633,19,3.633,19H18c0.552,0,1-0.448,1-1V3.634c0,0,0.251-0.11,0.36,0.231L20.292,7H37
			v2.628c1.662-0.204,3.33-0.358,5-0.461V4c0-1.104-0.896-2-2-2H18.829c-0.531,0-1.04,0.211-1.415,0.586L2.586,17.414
			C2.211,17.789,2,18.298,2,18.829V50c0,1.1,0.9,2,2,2h26v-5H7V20.292z"/>
		<path d="M45.124,38.994c0.264,0.389,0.671,0.656,1.141,0.659c0.002,0,0.004,0,0.007,0c0.468,0,0.891-0.252,1.141-0.647
			c4.201-6.641,6.69-10.501,6.69-10.501c0.352-0.588,0.198-1.347-0.354-1.753c-0.552-0.406-1.322-0.325-1.778,0.185l-5.818,6.551
			l-3.836-3.38c-0.491-0.426-1.219-0.433-1.719-0.018c-0.5,0.415-0.627,1.131-0.299,1.693
			C40.298,31.783,42.402,34.997,45.124,38.994z"/>
		<path d="M26.23,23.82l-6.945,7.82l-4.579-4.035c-0.586-0.509-1.455-0.517-2.052-0.021c-0.597,0.495-0.748,1.35-0.357,2.021
			c-0.001,0,2.51,3.837,5.76,8.608c0.315,0.464,0.801,0.783,1.362,0.787c0.002,0,0.005,0,0.008,0c0.559,0,1.064-0.301,1.362-0.772
			c5.015-7.928,7.986-12.536,7.986-12.536c0.42-0.702,0.237-1.608-0.422-2.093C27.693,23.115,26.774,23.211,26.23,23.82z"/>
	</g>
</g>
</svg>
